lib/svg/file.svg

<svg xmlns="http://www.w3.org/2000/svg" width="12" height="16" viewBox="0 0 12 16"><path d="M6 5H2V4h4v1zM2 8h7V7H2v1zm0 2h7V9H2v1zm0 2h7v-1H2v1zm10-7.5V14c0 .55-.45 1-1 1H1c-.55 0-1-.45-1-1V2c0-.55.45-1 1-1h7.5L12 4.5zM11 5L8 2H1v12h10V5z"/></svg>

<?xml version="1.0" encoding="UTF-8" standalone="no"?>
<svg width="12px" height="16px" viewBox="0 0 12 16" version="1.1" xmlns="http://www.w3.org/2000/svg" xmlns:xlink="http://www.w3.org/1999/xlink">
    <!-- Generator: Sketch 3.8.3 (29802) - http://www.bohemiancoding.com/sketch -->
    <title>file</title>
    <desc>Created with Sketch.</desc>
    <defs></defs>
    <g id="Octicons" stroke="none" stroke-width="1" fill="none" fill-rule="evenodd">
        <g id="file" fill="#000000">
            <path d="M6,5 L2,5 L2,4 L6,4 L6,5 L6,5 Z M2,8 L9,8 L9,7 L2,7 L2,8 L2,8 Z M2,10 L9,10 L9,9 L2,9 L2,10 L2,10 Z M2,12 L9,12 L9,11 L2,11 L2,12 L2,12 Z M12,4.5 L12,14 C12,14.55 11.55,15 11,15 L1,15 C0.45,15 0,14.55 0,14 L0,2 C0,1.45 0.45,1 1,1 L8.5,1 L12,4.5 L12,4.5 Z M11,5 L8,2 L1,2 L1,14 L11,14 L11,5 L11,5 Z" id="Shape"></path>
        </g>
    </g>
</svg>
